X:6969
T:the Kendal Hornpipe
O:england
N:Can be played in G
M:4/4
A:North-West
R:Hornpipe
K:F
cB|\
Acfc AFAc| BcBA GAGE| FEFG AFAc| BcBA G2cB|\
Acfc AFAc| BcBA GAGE| FEFG ABGE| F2F2 F2::\
cB|\
Accc c2de| fefc BAGF| AcFc AFcA| dFcF BAGF|\
Accc c2fc| Bddd d2ge| fefc AcGE| F2F2 F2:|
